GWA/img/thick-lines-white.svg

<svg width="1383" height="596" fill="none" xmlns="http://www.w3.org/2000/svg"><path opacity=".1" d="M1100.96 628.062l21.87-19.619-163.87-175.04L1383-82.331l-21.86-19.445-421.786 513.303-116.595-130.214L1326-124.043l-18.57-22.744-504.277 406.224L617.156 51.615 840.11-154.471 820.157-176 597.55 29.739 414.329-175.132l-21.861 19.619L576.036 49.705 350.827 257.7l-73.393-62.677-90.222-363.906-28.455 7.119 80.332 323.973L19.606-25.472l-9.543 23.96L251.408 211.17l27.935 112.678L0 581.847l19.953 21.529 267.371-247.06 67.493 271.714L95.775 841.061l18.565 22.744 248.285-204.176 52.398 211.294 28.455-7.118-55.695-224.837 185.65-152.611L743.641 631.85 543.07 857.555 564.931 877 765.85 650.774l174.892 149.313 19.086-22.397-174.372-148.965 153.898-173.272 161.606 172.609zM595.642 71.407l184.782 206.607L573.78 447.987 373.382 276.799l222.26-205.392zM289.753 243.985l39.559 33.682-25.332 23.438-14.227-57.12zm90.049 363.384l-68.014-273.797 39.733-36.634L550.53 466.912 379.802 607.369zm383.272 2.431L596.336 467.432 800.03 299.89l119.545 133.687L763.074 609.8z" fill="#fff"/></svg>

<svg width="1383" height="596" viewBox="0 0 1383 596" fill="none" xmlns="http://www.w3.org/2000/svg">
<path opacity="0.1" d="M1100.96 628.062L1122.83 608.443L958.96 433.403L1383 -82.3309L1361.14 -101.776L939.354 411.527L822.759 281.313L1326 -124.043L1307.43 -146.787L803.153 259.437L617.156 51.6147L840.11 -154.471L820.157 -176L597.55 29.7386L414.329 -175.132L392.468 -155.513L576.036 49.7048L350.827 257.701L277.434 195.024L187.212 -168.882L158.757 -161.763L239.089 162.21L19.606 -25.4722L10.0633 -1.5128L251.408 211.171L279.343 323.849L0 581.847L19.953 603.376L287.324 356.316L354.817 628.03L95.7746 841.061L114.34 863.805L362.625 659.629L415.023 870.923L443.478 863.805L387.783 638.968L573.433 486.357L743.641 631.85L543.07 857.555L564.931 877L765.85 650.774L940.742 800.087L959.828 777.69L785.456 628.725L939.354 455.453L1100.96 628.062ZM595.642 71.4072L780.424 278.014L573.78 447.987L373.382 276.799L595.642 71.4072ZM289.753 243.985L329.312 277.667L303.98 301.105L289.753 243.985ZM379.802 607.369L311.788 333.572L351.521 296.938L550.53 466.912L379.802 607.369ZM763.074 609.8L596.336 467.432L800.03 299.89L919.575 433.577L763.074 609.8Z" fill="white"/>
</svg>
